X:1
T:Just as the Sun was Setting
C:Traditional
M:3/4
L:1/4
Q:1/4=126
K:Em
B, | E3/2F/2E | B2e | d3/2e/2d | B2A | G3/2F/2E | F3/2E/2D | E3/2F/2E | B,2B, |
E3/2F/2E | B2e | d3/2e/2d | B2A | G F E | B3/2A/2B | E2D | E2 |]
